src/icons/recycle.svg

<svg xmlns="http://www.w3.org/2000/svg"  viewBox="0 0 50 50" width="32px" height="32px"><path d="M 25 0 C 22.882813 0 20.945313 1.324219 19.53125 3.71875 L 14.53125 12.15625 C 14.25 12.632813 14.429688 13.25 14.90625 13.53125 C 15.382813 13.8125 16 13.632813 16.28125 13.15625 L 21.25 4.71875 C 22.289063 2.957031 23.617188 2 25 2 C 26.382813 2 27.710938 2.957031 28.75 4.71875 L 34.5 14.4375 L 30.4375 16.90625 C 30.136719 17.085938 29.96875 17.398438 29.96875 17.75 C 29.96875 18.101563 30.136719 18.414063 30.4375 18.59375 L 40.4375 24.59375 C 40.597656 24.691406 40.789063 24.75 40.96875 24.75 C 41.140625 24.75 41.316406 24.710938 41.46875 24.625 C 41.78125 24.449219 41.96875 24.109375 41.96875 23.75 L 41.96875 11.75 C 41.96875 11.390625 41.78125 11.050781 41.46875 10.875 C 41.152344 10.699219 40.746094 10.6875 40.4375 10.875 L 36.21875 13.40625 L 30.46875 3.71875 C 29.054688 1.324219 27.117188 0 25 0 Z M 12.84375 15.9375 C 12.667969 15.941406 12.5 15.96875 12.34375 16.0625 L 2.34375 22.09375 C 2.042969 22.273438 1.84375 22.585938 1.84375 22.9375 C 1.84375 23.289063 2.042969 23.601563 2.34375 23.78125 L 6.28125 26.125 L 1.21875 34.6875 C -0.1875 37.066406 -0.371094 39.355469 0.65625 41.15625 C 1.703125 42.988281 3.835938 44 6.6875 44 L 18 44 C 18.550781 44 19 43.554688 19 43 C 19 42.445313 18.550781 42 18 42 L 6.6875 42 C 4.585938 42 3.050781 41.335938 2.375 40.15625 C 1.71875 39.007813 1.914063 37.421875 2.9375 35.6875 L 7.96875 27.15625 L 12.34375 29.78125 C 12.503906 29.875 12.664063 29.9375 12.84375 29.9375 C 13.015625 29.9375 13.191406 29.902344 13.34375 29.8125 C 13.65625 29.632813 13.84375 29.296875 13.84375 28.9375 L 13.84375 16.9375 C 13.84375 16.578125 13.65625 16.238281 13.34375 16.0625 C 13.1875 15.972656 13.019531 15.933594 12.84375 15.9375 Z M 43.4375 27 C 43.308594 27.019531 43.179688 27.054688 43.0625 27.125 C 42.589844 27.410156 42.433594 28.027344 42.71875 28.5 L 47.0625 35.6875 C 48.085938 37.421875 48.28125 39.007813 47.625 40.15625 C 46.949219 41.339844 45.417969 42 43.3125 42 L 34 42 L 34 37 C 34 36.640625 33.8125 36.300781 33.5 36.125 C 33.1875 35.949219 32.8125 35.96875 32.5 36.15625 L 22.5 42.15625 C 22.273438 42.292969 22.097656 42.5 22.03125 42.75 C 22.007813 42.832031 22 42.910156 22 43 C 22 43.351563 22.199219 43.664063 22.5 43.84375 L 32.5 49.84375 C 32.660156 49.9375 32.820313 50 33 50 C 33.085938 50 33.167969 49.992188 33.25 49.96875 C 33.332031 49.945313 33.421875 49.917969 33.5 49.875 C 33.8125 49.695313 34 49.359375 34 49 L 34 44 L 43.3125 44 C 46.164063 44 48.328125 42.988281 49.375 41.15625 C 50.402344 39.355469 50.191406 37.042969 48.78125 34.65625 L 44.4375 27.46875 C 44.222656 27.113281 43.824219 26.945313 43.4375 27 Z"/></svg>

<svg role="img" viewBox="0 0 50 50" xmlns="http://www.w3.org/2000/svg"><path d="M25 0c-2.117 0-4.055 1.324-5.469 3.719l-5 8.437c-.281.477-.101 1.094.375 1.375.477.281 1.094.102 1.375-.375L21.25 4.72C22.29 2.957 23.617 2 25 2s2.71.957 3.75 2.719l5.75 9.718-4.062 2.47a.961.961 0 0 0-.47.843c0 .352.169.664.47.844l10 6a1.021 1.021 0 0 0 1.031.031c.312-.176.5-.516.5-.875v-12c0-.36-.188-.7-.5-.875-.317-.176-.723-.187-1.032 0l-4.218 2.531-5.75-9.687C29.055 1.324 27.117 0 25 0M12.844 15.938a.98.98 0 0 0-.5.124l-10 6.032a.99.99 0 0 0-.5.843.99.99 0 0 0 .5.844l3.937 2.344-5.062 8.563c-1.406 2.378-1.59 4.667-.563 6.468C1.703 42.988 3.836 44 6.688 44H18a1 1 0 1 0 0-2H6.688c-2.102 0-3.637-.664-4.313-1.844-.656-1.148-.46-2.734.563-4.468l5.03-8.532 4.376 2.625c.16.094.32.157.5.157a.98.98 0 0 0 .5-.125c.312-.18.5-.516.5-.875v-12c0-.36-.188-.7-.5-.875a.943.943 0 0 0-.5-.125M43.438 27c-.13.02-.258.055-.376.125a1.004 1.004 0 0 0-.343 1.375l4.343 7.188c1.024 1.734 1.22 3.32.563 4.468C46.949 41.34 45.418 42 43.313 42H34v-5a1 1 0 0 0-.5-.875.987.987 0 0 0-1 .031l-10 6a1.01 1.01 0 0 0-.469.594A.878.878 0 0 0 22 43c0 .352.2.664.5.844l10 6c.16.093.32.156.5.156a.896.896 0 0 0 .25-.031c.082-.024.172-.051.25-.094.313-.18.5-.516.5-.875v-5h9.313c2.851 0 5.015-1.012 6.062-2.844 1.027-1.8.816-4.113-.594-6.5l-4.343-7.187a.998.998 0 0 0-1-.469"/></svg>
